src/shared/assets/icons/profile/profile-goodsurfer.svg

<svg width="75" height="79" viewBox="0 0 75 79" fill="none" xmlns="http://www.w3.org/2000/svg">
<path d="M31.4997 35C35.9199 35 40.1592 33.2441 43.2848 30.1185C46.4104 26.9929 48.1663 22.7536 48.1663 18.3334C48.1663 13.9131 46.4104 9.67385 43.2848 6.54824C40.1592 3.42263 35.9199 1.66669 31.4997 1.66669C27.0794 1.66669 22.8402 3.42263 19.7146 6.54824C16.589 9.67385 14.833 13.9131 14.833 18.3334C14.833 22.7536 16.589 26.9929 19.7146 30.1185C22.8402 33.2441 27.0794 35 31.4997 35Z" stroke="#3DABF7" stroke-width="3" stroke-linecap="round" stroke-linejoin="round"/>
<path d="M73.1665 57C73.166 59.5072 72.1745 61.9125 70.4081 63.6917C66.3415 67.7917 62.3956 72.0667 58.1748 76.0167C57.7033 76.4472 57.0844 76.68 56.446 76.6668C55.8077 76.6536 55.1989 76.3955 54.7456 75.9459L42.5873 63.6959C40.8199 61.9155 39.8281 59.5086 39.8281 57C39.8281 54.4914 40.8199 52.0845 42.5873 50.3042C43.4693 49.4152 44.5185 48.7095 45.6745 48.228C46.8305 47.7464 48.0704 47.4985 49.3227 47.4985C50.575 47.4985 51.8149 47.7464 52.9709 48.228C54.1269 48.7095 55.1762 49.4152 56.0581 50.3042L56.4998 50.75L56.9415 50.3042C58.266 48.9682 59.9578 48.0561 61.802 47.6839C63.6461 47.3117 65.5592 47.4962 67.2982 48.2139C69.0373 48.9315 70.5237 50.15 71.5686 51.7145C72.6135 53.2789 73.1697 55.1187 73.1665 57Z" stroke="#3DABF7" stroke-width="3" stroke-linejoin="round"/>
<path d="M2.33301 68.3334L2.33301 64.1667C2.33199 59.2458 3.57606 54.4046 5.94941 50.0938C8.32275 45.783 11.7482 42.1428 15.9069 39.512C20.0656 36.8812 24.8223 35.3454 29.7342 35.0475C34.6461 34.7496 39.5536 35.6994 43.9997 37.8084" stroke="#3DABF7" stroke-width="3" stroke-linecap="round" stroke-linejoin="round"/>
</svg>

<svg xmlns="http://www.w3.org/2000/svg" width="75" height="79" fill="none" stroke="#3dabf7" stroke-width="3" stroke-linejoin="round" xmlns:v="https://vecta.io/nano"><path d="M31.5 35a16.67 16.67 0 0 0 11.785-4.881c3.126-3.125 4.882-7.365 4.882-11.785s-1.756-8.66-4.882-11.785A16.67 16.67 0 0 0 31.5 1.667c-4.42 0-8.66 1.756-11.785 4.882a16.67 16.67 0 0 0-4.882 11.785c0 4.42 1.756 8.659 4.882 11.785S27.079 35 31.5 35zm41.667 22a9.5 9.5 0 0 1-2.758 6.692c-4.067 4.1-8.013 8.375-12.233 12.325a2.49 2.49 0 0 1-3.429-.071l-12.158-12.25c-1.767-1.78-2.759-4.187-2.759-6.696s.992-4.916 2.759-6.696a9.49 9.49 0 0 1 3.087-2.076 9.48 9.48 0 0 1 7.296 0c1.156.482 2.205 1.187 3.087 2.076l.442.446.442-.446c1.325-1.336 3.016-2.248 4.861-2.62s3.757-.188 5.496.53a9.48 9.48 0 0 1 4.27 3.501c1.044 1.565 1.6 3.404 1.597 5.285z"/><path d="M2.333 68.333v-4.167c-.001-4.921 1.243-9.762 3.616-14.073s5.799-7.951 9.957-10.582 8.915-4.167 13.827-4.465 9.819.652 14.265 2.761" stroke-linecap="round"/></svg>
